public/images/trash.svg

<svg width="16" height="16" viewBox="0 0 16 16" fill="none" xmlns="http://www.w3.org/2000/svg">
<g id="vuesax/bold/trash">
<g id="trash">
<path id="Vector" d="M14.0491 3.48659C12.9757 3.37992 11.9024 3.29992 10.8224 3.23992V3.23325L10.6757 2.36659C10.5757 1.75325 10.429 0.833252 8.86905 0.833252H7.12238C5.56905 0.833252 5.42238 1.71325 5.31572 2.35992L5.17572 3.21325C4.55572 3.25325 3.93572 3.29325 3.31572 3.35325L1.95572 3.48659C1.67572 3.51325 1.47572 3.75992 1.50238 4.03325C1.52905 4.30659 1.76905 4.50659 2.04905 4.47992L3.40905 4.34659C6.90238 3.99992 10.4224 4.13325 13.9557 4.48659C13.9757 4.48659 13.989 4.48659 14.0091 4.48659C14.2624 4.48659 14.4824 4.29325 14.5091 4.03325C14.529 3.75992 14.3291 3.51325 14.0491 3.48659Z" fill="#EAE0FF"/>
<path id="Vector_2" d="M12.8211 5.42675C12.6611 5.26008 12.4411 5.16675 12.2145 5.16675H3.7878C3.56114 5.16675 3.33447 5.26008 3.18114 5.42675C3.0278 5.59341 2.94114 5.82008 2.95447 6.05341L3.3678 12.8934C3.44114 13.9067 3.53447 15.1734 5.86114 15.1734H10.1411C12.4678 15.1734 12.5611 13.9134 12.6345 12.8934L13.0478 6.06008C13.0611 5.82008 12.9745 5.59341 12.8211 5.42675ZM9.1078 11.8334H6.8878C6.61447 11.8334 6.3878 11.6067 6.3878 11.3334C6.3878 11.0601 6.61447 10.8334 6.8878 10.8334H9.1078C9.38113 10.8334 9.6078 11.0601 9.6078 11.3334C9.6078 11.6067 9.38113 11.8334 9.1078 11.8334ZM9.6678 9.16675H6.33447C6.06114 9.16675 5.83447 8.94008 5.83447 8.66675C5.83447 8.39341 6.06114 8.16675 6.33447 8.16675H9.6678C9.94113 8.16675 10.1678 8.39341 10.1678 8.66675C10.1678 8.94008 9.94113 9.16675 9.6678 9.16675Z" fill="#EAE0FF"/>
</g>
</g>
</svg>

<svg width="16" height="16" fill="none" xmlns="http://www.w3.org/2000/svg"><g fill="#EAE0FF"><path d="M14.05 3.487a74.222 74.222 0 0 0-3.228-.247v-.007l-.146-.866c-.1-.614-.247-1.534-1.807-1.534H7.122c-1.553 0-1.7.88-1.806 1.527l-.14.853c-.62.04-1.24.08-1.86.14l-1.36.134a.501.501 0 0 0-.454.546.497.497 0 0 0 .547.447l1.36-.133c3.493-.347 7.013-.214 10.547.14h.053a.505.505 0 0 0 .5-.454.511.511 0 0 0-.46-.546ZM12.821 5.427a.843.843 0 0 0-.607-.26H3.788a.832.832 0 0 0-.834.886l.414 6.84c.073 1.014.166 2.28 2.493 2.28h4.28c2.327 0 2.42-1.26 2.493-2.28l.414-6.833a.864.864 0 0 0-.227-.633Zm-3.713 6.406h-2.22a.504.504 0 0 1-.5-.5c0-.273.226-.5.5-.5h2.22c.273 0 .5.227.5.5 0 .274-.227.5-.5.5Zm.56-2.666H6.334a.504.504 0 0 1-.5-.5c0-.274.227-.5.5-.5h3.334c.273 0 .5.226.5.5 0 .273-.227.5-.5.5Z"/></g></svg>
